;FLAVOR:Marlin
;TIME:17067
;Filament used: 12.6987m
;Layer height: 0.2
;Generated with Cura_SteamEngine 3.3.1
M190 S60
M104 S195
M109 S195
M82 ;absolute extrusion mode
G21 ;metric values
G90 ;absolute positioning
M82 ;set extruder to absolute mode
M107 ;start with the fan off
G28 X0 Y0 ;move X/Y to min endstops
G28 Z0 ;move Z to min endstops
G1 Z15.0 F150 ;move the platform down 15mm
G92 E0 ;zero the extruded length
G1 F200 E3 ;extrude 3mm of feed stock
G92 E0 ;zero the extruded length again
G1 F150
M117 Printing...
G5
G92 E0
G1 F2400 E-5
;LAYER_COUNT:50
;LAYER:0
M106 S255
M204 S3000
M205 X10 Y10
G0 F4500 X38.9 Y70.745 Z0.2
M204 S1800
M205 X8 Y8
;TYPE:SKIRT
G1 F2400 E0
G1 X39.739 Y70.315 E0.0439
G1 X40.585 Y69.957 E0.08667
G1 X41.258 Y69.716 E0.11996
G1 X41.954 Y69.551 E0.15327
G1 X42.346 Y69.493 E0.17172
G1 X43.561 Y69.353 E0.22867
G1 X44.296 Y69.311 E0.26295
G1 X176.215 Y69.343 E6.40565
G1 X177.126 Y69.408 E6.44818
G1 X177.778 Y69.502 E6.47885
G1 X178.479 Y69.644 E6.51216
G1 X179.263 Y69.903 E6.5506
G1 X180.124 Y70.251 E6.59385
G1 X180.771 Y70.556 E6.62715
G1 X181.588 Y71.082 E6.6724
G1 X182.332 Y71.645 E6.71584
G1 X182.877 Y72.107 E6.74911
G1 X183.527 Y72.825 E6.79421
G1 X184.094 Y73.556 E6.83729
G1 X184.5 Y74.145 E6.8706
G1 X184.932 Y74.988 E6.91471
G1 X185.289 Y75.833 E6.95742
G1 X185.531 Y76.507 E6.99077
G1 X185.695 Y77.203 E7.02406
G1 X185.752 Y77.591 E7.04232
G1 X185.892 Y78.806 E7.09927
G1 X185.934 Y79.54 E7.13351
G1 X185.922 Y140.765 E9.9844
G1 X185.867 Y141.604 E10.02355
G1 X185.754 Y142.458 E10.06366
G1 X185.62 Y143.16 E10.09694
G1 X185.342 Y144.017 E10.1389
G1 X184.993 Y144.88 E10.18224
G1 X184.688 Y145.527 E10.21555
G1 X184.163 Y146.343 E10.26073
G1 X183.6 Y147.087 E10.30417
G1 X183.138 Y147.632 E10.33744
G1 X182.419 Y148.283 E10.38261
G1 X181.689 Y148.849 E10.42562
G1 X181.1 Y149.255 E10.45893
G1 X180.261 Y149.685 E10.50283
G1 X179.415 Y150.043 E10.5456
G1 X178.742 Y150.284 E10.57889
G1 X178.046 Y150.449 E10.6122
G1 X177.654 Y150.507 E10.63065
G1 X176.439 Y150.647 E10.6876
G1 X175.705 Y150.689 E10.72183
G1 X43.99 Y150.677 E16.85504
G1 X43.146 Y150.621 E16.89442
G1 X42.29 Y150.507 E16.93463
G1 X41.588 Y150.373 E16.96791
G1 X40.737 Y150.097 E17.00957
G1 X39.876 Y149.749 E17.05281
G1 X39.229 Y149.444 E17.08612
G1 X38.412 Y148.918 E17.13136
G1 X37.668 Y148.355 E17.17481
G1 X37.123 Y147.893 E17.20808
G1 X36.473 Y147.175 E17.25318
G1 X35.906 Y146.444 E17.29625
G1 X35.5 Y145.855 E17.32956
G1 X35.068 Y145.012 E17.37367
G1 X34.711 Y144.167 E17.41639
G1 X34.469 Y143.493 E17.44973
G1 X34.267 Y142.554 E17.49446
G1 X34.135 Y141.601 E17.53926
G1 X34.074 Y140.723 E17.58024
G1 X34.075 Y79.279 E20.44133
G1 X34.128 Y78.458 E20.47964
G1 X34.244 Y77.561 E20.52175
G1 X34.375 Y76.858 E20.55505
G1 X34.658 Y75.983 E20.59787
G1 X35.007 Y75.12 E20.64122
G1 X35.312 Y74.473 E20.67453
G1 X35.837 Y73.657 E20.71971
G1 X36.4 Y72.913 E20.76315
G1 X36.862 Y72.368 E20.79642
G1 X37.581 Y71.717 E20.84158
G1 X38.311 Y71.151 E20.8846
G1 X38.9 Y70.745 E20.91791
M204 S3000
M205 X10 Y10
G0 F4500 X39.218 Y71.207
M204 S1800
M205 X8 Y8
G1 F2400 X39.957 Y70.831 E20.95652
G1 X40.803 Y70.473 E20.99929
G1 X41.447 Y70.244 E21.03112
G1 X42.411 Y70.049 E21.07692
G1 X43.626 Y69.909 E21.13386
G1 X44.295 Y69.871 E21.16507
G1 X176.214 Y69.903 E27.30777
G1 X177.046 Y69.963 E27.34661
G1 X177.698 Y70.057 E27.37728
G1 X178.368 Y70.194 E27.40913
G1 X179.053 Y70.423 E27.44276
G1 X179.914 Y70.771 E27.486
G1 X180.532 Y71.063 E27.51783
G1 X181.25 Y71.528 E27.55766
G1 X181.994 Y72.091 E27.60111
G1 X182.514 Y72.535 E27.63294
G1 X183.085 Y73.169 E27.67267
G1 X183.652 Y73.9 E27.71575
G1 X184.038 Y74.463 E27.74754
G1 X184.417 Y75.206 E27.78638
G1 X184.774 Y76.051 E27.82909
G1 X185.002 Y76.695 E27.8609
G1 X185.196 Y77.656 E27.90655
G1 X185.336 Y78.871 E27.9635
G1 X185.374 Y79.54 E27.9947
G1 X185.362 Y140.765 E30.8456
G1 X185.312 Y141.53 E30.88129
G1 X185.199 Y142.384 E30.92141
G1 X185.069 Y143.055 E30.95323
G1 X184.823 Y143.807 E30.99007
G1 X184.474 Y144.67 E31.03342
G1 X184.181 Y145.288 E31.06527
G1 X183.717 Y146.005 E31.10504
G1 X183.154 Y146.749 E31.14848
G1 X182.71 Y147.269 E31.18032
G1 X182.075 Y147.84 E31.22008
G1 X181.345 Y148.406 E31.2631
G1 X180.782 Y148.793 E31.29491
G1 X180.043 Y149.169 E31.33352
G1 X179.197 Y149.527 E31.37629
G1 X178.553 Y149.756 E31.40812
G1 X177.589 Y149.951 E31.45392
G1 X176.374 Y150.091 E31.51087
G1 X175.705 Y150.129 E31.54207
G1 X43.99 Y150.117 E37.67527
G1 X43.22 Y150.066 E37.7112
G1 X42.364 Y149.952 E37.75141
G1 X41.693 Y149.822 E37.78324
G1 X40.947 Y149.577 E37.8198
G1 X40.086 Y149.229 E37.86304
G1 X39.468 Y148.937 E37.89487
G1 X38.75 Y148.472 E37.9347
G1 X38.006 Y147.909 E37.97815
G1 X37.486 Y147.465 E38.00999
G1 X36.915 Y146.831 E38.04972
G1 X36.348 Y146.1 E38.09279
G1 X35.962 Y145.537 E38.12458
G1 X35.583 Y144.794 E38.16342
G1 X35.226 Y143.949 E38.20613
G1 X34.998 Y143.305 E38.23794
G1 X34.821 Y142.477 E38.27737
G1 X34.689 Y141.524 E38.32217
G1 X34.634 Y140.723 E38.35955
G1 X34.635 Y79.279 E41.22064
G1 X34.683 Y78.53 E41.25559
G1 X34.799 Y77.633 E41.29771
G1 X34.926 Y76.962 E41.32951
G1 X35.177 Y76.193 E41.36717
G1 X35.526 Y75.33 E41.41052
G1 X35.819 Y74.712 E41.44237
G1 X36.283 Y73.995 E41.48214
G1 X36.846 Y73.251 E41.52558
G1 X37.29 Y72.731 E41.55742
G1 X37.925 Y72.16 E41.59718
G1 X38.655 Y71.594 E41.6402
G1 X39.218 Y71.207 E41.67201
M204 S3000
M205 X10 Y10
G0 F4500 X39.535 Y71.671
M204 S1800
M205 X8 Y8
G1 F2400 X40.175 Y71.346 E41.70543
G1 X41.021 Y70.988 E41.74821
G1 X41.634 Y70.773 E41.77846
G1 X42.475 Y70.606 E41.81838
G1 X43.69 Y70.466 E41.87533
G1 X44.295 Y70.431 E41.90355
G1 X176.214 Y70.463 E48.04625
G1 X176.966 Y70.517 E48.08136
G1 X177.618 Y70.611 E48.11203
G1 X178.254 Y70.743 E48.14228
G1 X178.844 Y70.942 E48.17127
G1 X179.705 Y71.29 E48.21451
G1 X180.291 Y71.57 E48.24475
G1 X180.912 Y71.975 E48.27928
G1 X181.656 Y72.538 E48.32272
G1 X182.149 Y72.961 E48.35297
G1 X182.642 Y73.512 E48.3874
G1 X183.209 Y74.243 E48.43047
G1 X183.575 Y74.78 E48.46074
G1 X183.901 Y75.424 E48.49435
G1 X184.258 Y76.269 E48.53706
G1 X184.473 Y76.882 E48.56731
G1 X184.639 Y77.72 E48.60709
G1 X184.779 Y78.935 E48.66404
G1 X184.814 Y79.54 E48.69226
G1 X184.802 Y140.765 E51.54315
G1 X184.756 Y141.457 E51.57544
G1 X184.643 Y142.311 E51.61555
G1 X184.519 Y142.948 E51.64577
G1 X184.304 Y143.598 E51.67765
G1 X183.955 Y144.461 E51.721
G1 X183.675 Y145.047 E51.75124
G1 X183.27 Y145.667 E51.78572
G1 X182.707 Y146.411 E51.82917
G1 X182.284 Y146.904 E51.85942
G1 X181.732 Y147.398 E51.89391
G1 X181.002 Y147.964 E51.93692
G1 X180.465 Y148.329 E51.96716
G1 X179.825 Y148.654 E52.00058
G1 X178.979 Y149.012 E52.04335
G1 X178.366 Y149.227 E52.0736
G1 X177.525 Y149.394 E52.11353
G1 X176.31 Y149.534 E52.17048
G1 X175.706 Y149.569 E52.19865
G1 X43.991 Y149.557 E58.33185
G1 X43.294 Y149.511 E58.36438
G1 X42.438 Y149.397 E58.40459
G1 X41.801 Y149.272 E58.43482
G1 X41.156 Y149.058 E58.46646
G1 X40.295 Y148.71 E58.5097
G1 X39.709 Y148.43 E58.53994
G1 X39.088 Y148.025 E58.57447
G1 X38.344 Y147.462 E58.61791
G1 X37.851 Y147.039 E58.64816
G1 X37.358 Y146.488 E58.68259
G1 X36.791 Y145.757 E58.72566
G1 X36.425 Y145.22 E58.75592
G1 X36.099 Y144.576 E58.78954
G1 X35.742 Y143.731 E58.83225
G1 X35.527 Y143.118 E58.8625
G1 X35.376 Y142.4 E58.89666
G1 X35.244 Y141.447 E58.94146
G1 X35.194 Y140.723 E58.97525
G1 X35.195 Y79.279 E61.83634
G1 X35.239 Y78.602 E61.86794
G1 X35.355 Y77.705 E61.91005
G1 X35.477 Y77.067 E61.9403
G1 X35.696 Y76.402 E61.9729
G1 X36.045 Y75.539 E62.01624
G1 X36.325 Y74.953 E62.04649
G1 X36.73 Y74.333 E62.08097
G1 X37.293 Y73.589 E62.12441
G1 X37.716 Y73.096 E62.15466
G1 X38.268 Y72.602 E62.18916
G1 X38.998 Y72.036 E62.23217
G1 X39.535 Y71.671 E62.2624
M204 S3000
M205 X10 Y10
G1 F2400 E57.2624
G0 F4500 X43.883 Y75.059
G0 X44.082 Y76.569
G0 X176.531 Y77.195
M204 S1800
M205 X8 Y8
;TYPE:WALL-INNER
G1 F2400 E62.2624
G1 F900 X177.049 Y77.409 E62.2885
G1 X177.494 Y77.751 E62.31463
G1 X177.836 Y78.196 E62.34077
G1 X178.05 Y78.714 E62.36686
G1 X178.135 Y79.361 E62.39725
G1 X178.135 Y140.639 E65.25061
G1 X178.05 Y141.286 E65.281
G1 X177.836 Y141.804 E65.30709
G1 X177.494 Y142.249 E65.33323
G1 X177.049 Y142.591 E65.35936
G1 X176.531 Y142.805 E65.38546
G1 X175.884 Y142.89 E65.41585
G1 X44.116 Y142.89 E71.55152
G1 X43.469 Y142.805 E71.5819
G1 X42.951 Y142.591 E71.608
G1 X42.506 Y142.249 E71.63413
G1 X42.164 Y141.804 E71.66027
G1 X41.95 Y141.286 E71.68636
G1 X41.865 Y140.639 E71.71675
G1 X41.865 Y79.361 E74.57011
G1 X41.95 Y78.714 E74.6005
G1 X42.164 Y78.196 E74.62659
G1 X42.506 Y77.751 E74.65273
G1 X42.951 Y77.409 E74.67886
G1 X43.469 Y77.195 E74.70496
G1 X44.116 Y77.11 E74.73534
G1 X175.884 Y77.11 E80.87101
G1 X176.531 Y77.195 E80.9014
M204 S3000
M205 X10 Y10
G0 F4500 X176.676 Y76.649
M204 S1800
M205 X8 Y8
G1 F900 X177.332 Y76.921 E80.93447
G1 X177.893 Y77.352 E80.96741
G1 X178.324 Y77.913 E81.00035
G1 X178.596 Y78.569 E81.03342
G1 X178.695 Y79.326 E81.06897
G1 X178.695 Y140.674 E83.92559
G1 X178.596 Y141.431 E83.96114
G1 X178.324 Y142.087 E83.99421
G1 X177.893 Y142.648 E84.02715
G1 X177.332 Y143.079 E84.06009
G1 X176.676 Y143.351 E84.09316
G1 X175.919 Y143.45 E84.12871
G1 X44.081 Y143.45 E90.26764
G1 X43.324 Y143.351 E90.30318
G1 X42.668 Y143.079 E90.33625
G1 X42.107 Y142.648 E90.36919
G1 X41.676 Y142.087 E90.40214
G1 X41.404 Y141.431 E90.4352
G1 X41.305 Y140.674 E90.47075
G1 X41.305 Y79.326 E93.32737
G1 X41.404 Y78.569 E93.36292
G1 X41.676 Y77.913 E93.39599
G1 X42.107 Y77.352 E93.42893
G1 X42.668 Y76.921 E93.46187
G1 X43.324 Y76.649 E93.49494
G1 X44.081 Y76.55 E93.53049
G1 X175.919 Y76.55 E99.66942
G1 X176.676 Y76.649 E99.70497
M204 S3000
M205 X10 Y10
G0 F4500 X176.823 Y76.104
M204 S1800
M205 X8 Y8
;TYPE:WALL-OUTER
G1 F900 X177.614 Y76.432 E99.74484
G1 X178.292 Y76.953 E99.78466
G1 X178.813 Y77.631 E99.82447
G1 X179.141 Y78.422 E99.86435
G1 X179.255 Y79.291 E99.90516
G1 X179.255 Y140.709 E102.76504
G1 X179.141 Y141.578 E102.80585
G1 X178.813 Y142.369 E102.84572
G1 X178.292 Y143.047 E102.88554
G1 X177.614 Y143.568 E102.92535
G1 X176.823 Y143.896 E102.96522
G1 X175.954 Y144.01 E103.00604
G1 X44.046 Y144.01 E109.14822
G1 X43.177 Y143.896 E109.18904
G1 X42.386 Y143.568 E109.22891
G1 X41.708 Y143.047 E109.26872
G1 X41.187 Y142.369 E109.30854
G1 X40.859 Y141.578 E109.34841
G1 X40.745 Y140.709 E109.38922
G1 X40.745 Y79.291 E112.2491
G1 X40.859 Y78.422 E112.28991
G1 X41.187 Y77.631 E112.32979
G1 X41.708 Y76.953 E112.3696
G1 X42.386 Y76.432 E112.40942
G1 X43.177 Y76.104 E112.44929
G1 X44.046 Y75.99 E112.4901
G1 X175.954 Y75.99 E118.63229
G1 X176.823 Y76.104 E118.6731
M204 S3000
M205 X10 Y10
G0 F4500 X177.007 Y76.18
G0 X176.754 Y76.789
G0 X176.387 Y77.731
M204 S1800
M205 X8 Y8
;TYPE:SKIN
G1 F900 X176.772 Y77.89 E118.6925
G1 X177.101 Y78.144 E118.71185
G1 X177.355 Y78.473 E118.7312
G1 X177.514 Y78.858 E118.7506
G1 X177.585 Y79.402 E118.77615
G1 X177.585 Y140.598 E121.62569
G1 X177.514 Y141.142 E121.65123
G1 X177.355 Y141.527 E121.67063
G1 X177.101 Y141.856 E121.68998
G1 X176.772 Y142.11 E121.70934
G1 X176.387 Y142.269 E121.72873
G1 X175.843 Y142.34 E121.75428
G1 X44.157 Y142.34 E127.88613
G1 X43.613 Y142.269 E127.91168
G1 X43.228 Y142.11 E127.93107
G1 X42.899 Y141.856 E127.95043
G1 X42.645 Y141.527 E127.96978
G1 X42.486 Y141.142 E127.98918
G1 X42.415 Y140.598 E128.01472
G1 X42.415 Y79.402 E130.86426
G1 X42.486 Y78.858 E130.88981
G1 X42.645 Y78.473 E130.90921
G1 X42.899 Y78.144 E130.92856
G1 X43.228 Y77.89 E130.94791
G1 X43.613 Y77.731 E130.96731
G1 X44.157 Y77.66 E130.99286
G1 X175.843 Y77.66 E137.12471
G1 X176.387 Y77.731 E137.15025
M204 S3000
M205 X10 Y10
G0 F4500 X177.278 Y79.075
M204 S1800
M205 X8 Y8
G1 F900 X176.169 Y77.966 E137.22328
G1 X176.099 Y77.896
M204 S3000
M205 X10 Y10
G0 F4500 X175.331 Y77.92
M204 S1800
M205 X8 Y8
G1 F900 X177.324 Y79.913 E137.35453
G1 X177.394 Y79.983
M204 S3000
M205 X10 Y10
G0 F4500 X177.324 Y80.705
M204 S1800
M205 X8 Y8
G1 F900 X174.539 Y77.92 E137.53792
G1 X174.469 Y77.85
M204 S3000
M205 X10 Y10
G0 F4500 X173.747 Y77.92
M204 S1800
M205 X8 Y8
G1 F900 X177.324 Y81.497 E137.77347
G1 X177.394 Y81.567
M204 S3000
M205 X10 Y10
G0 F4500 X177.324 Y82.289
M204 S1800
M205 X8 Y8
G1 F900 X172.955 Y77.92 E138.06118
G1 X172.885 Y77.85
M204 S3000
M205 X10 Y10
G0 F4500 X172.163 Y77.92
M204 S1800
M205 X8 Y8
G1 F900 X177.324 Y83.081 E138.40104
G1 X177.394 Y83.151
M204 S3000
M205 X10 Y10
G0 F4500 X177.324 Y83.873
M204 S1800
M205 X8 Y8
G1 F900 X171.371 Y77.92 E138.79306
G1 X171.301 Y77.85
M204 S3000
M205 X10 Y10
G0 F4500 X170.579 Y77.92
M204 S1800
M205 X8 Y8
G1 F900 X177.324 Y84.665 E139.23723
G1 X177.394 Y84.735
M204 S3000
M205 X10 Y10
G0 F4500 X177.324 Y85.457
M204 S1800
M205 X8 Y8
G1 F900 X169.787 Y77.92 E139.73355
G1 X169.717 Y77.85
M204 S3000
M205 X10 Y10
G0 F4500 X168.995 Y77.92
M204 S1800
M205 X8 Y8
G1 F900 X177.324 Y86.249 E140.28203
G1 X177.394 Y86.319
M204 S3000
M205 X10 Y10
G0 F4500 X177.324 Y87.041
M204 S1800
M205 X8 Y8
G1 F900 X168.203 Y77.92 E140.88266
G1 X168.133 Y77.85
M204 S3000
M205 X10 Y10
G0 F4500 X167.411 Y77.92
M204 S1800
M205 X8 Y8
G1 F900 X177.324 Y87.833 E141.53545
G1 X177.394 Y87.903
M204 S3000
M205 X10 Y10
G0 F4500 X177.324 Y88.625
M204 S1800
M205 X8 Y8
G1 F900 X166.619 Y77.92 E142.24039
G1 X166.549 Y77.85
M204 S3000
M205 X10 Y10
G0 F4500 X165.827 Y77.92
M204 S1800
M205 X8 Y8
G1 F900 X177.324 Y89.417 E142.99749
G1 X177.394 Y89.487
M204 S3000
M205 X10 Y10
G0 F4500 X177.324 Y90.209
M204 S1800
M205 X8 Y8
G1 F900 X165.035 Y77.92 E143.80674
G1 X164.965 Y77.85
M204 S3000
M205 X10 Y10
G0 F4500 X164.243 Y77.92
M204 S1800
M205 X8 Y8
G1 F900 X177.324 Y91.001 E144.66815
G1 X177.394 Y91.071
M204 S3000
M205 X10 Y10
G0 F4500 X177.324 Y91.793
M204 S1800
M205 X8 Y8
G1 F900 X163.451 Y77.92 E145.58171
G1 X163.381 Y77.85
M204 S3000
M205 X10 Y10
G0 F4500 X162.66 Y77.92
M204 S1800
M205 X8 Y8
G1 F900 X177.324 Y92.585 E146.54739
G1 X177.394 Y92.655
M204 S3000
M205 X10 Y10
G0 F4500 X177.324 Y93.376
M204 S1800
M205 X8 Y8
G1 F900 X161.868 Y77.92 E147.5652
G1 X161.798 Y77.85
M204 S3000
M205 X10 Y10
G0 F4500 X161.076 Y77.92
M204 S1800
M205 X8 Y8
G1 F900 X177.324 Y94.168 E148.63515
G1 X177.394 Y94.238
M204 S3000
M205 X10 Y10
G0 F4500 X177.324 Y94.96
M204 S1800
M205 X8 Y8
G1 F900 X160.284 Y77.92 E149.75727
G1 X160.214 Y77.85
M204 S3000
M205 X10 Y10
G0 F4500 X159.492 Y77.92
M204 S1800
M205 X8 Y8
G1 F900 X177.324 Y95.752 E150.93153
G1 X177.394 Y95.822
M204 S3000
M205 X10 Y10
G0 F4500 X177.324 Y96.544
M204 S1800
M205 X8 Y8
G1 F900 X158.7 Y77.92 E152.15796
G1 X158.63 Y77.85
M204 S3000
M205 X10 Y10
G0 F4500 X157.908 Y77.92
M204 S1800
M205 X8 Y8
G1 F900 X177.324 Y97.336 E153.43653
G1 X177.394 Y97.406
M204 S3000
M205 X10 Y10
G0 F4500 X177.324 Y98.128
M204 S1800
M205 X8 Y8
G1 F900 X157.116 Y77.92 E154.76726
G1 X157.046 Y77.85
M204 S3000
M205 X10 Y10
G0 F4500 X156.324 Y77.92
M204 S1800
M205 X8 Y8
G1 F900 X177.324 Y98.92 E156.15015
G1 X177.394 Y98.99
M204 S3000
M205 X10 Y10
G0 F4500 X177.324 Y99.712
M204 S1800
M205 X8 Y8
G1 F900 X155.532 Y77.92 E157.58519
G1 X155.462 Y77.85
M204 S3000
M205 X10 Y10
G0 F4500 X154.74 Y77.92
M204 S1800
M205 X8 Y8
G1 F900 X177.324 Y100.504 E159.07239
G1 X177.394 Y100.574
M204 S3000
M205 X10 Y10
G0 F4500 X177.324 Y101.296
M204 S1800
M205 X8 Y8
G1 F900 X153.948 Y77.92 E160.61174
G1 X153.878 Y77.85
M204 S3000
M205 X10 Y10
G0 F4500 X153.156 Y77.92
M204 S1800
M205 X8 Y8
G1 F900 X177.324 Y102.088 E162.20324
G1 X177.394 Y102.158
M204 S3000
M205 X10 Y10
G0 F4500 X177.324 Y102.88
M204 S1800
M205 X8 Y8
G1 F900 X152.364 Y77.92 E163.8469
G1 X152.294 Y77.85
M204 S3000
M205 X10 Y10
G0 F4500 X151.572 Y77.92
M204 S1800
M205 X8 Y8
G1 F900 X177.324 Y103.672 E165.54271
G1 X177.394 Y103.742
M204 S3000
M205 X10 Y10
G0 F4500 X177.324 Y104.464
M204 S1800
M205 X8 Y8
G1 F900 X150.78 Y77.92 E167.29068
G1 X150.71 Y77.85
M204 S3000
M205 X10 Y10
G0 F4500 X149.988 Y77.92
M204 S1800
M205 X8 Y8
G1 F900 X177.324 Y105.256 E169.0908
G1 X177.394 Y105.326
M204 S3000
M205 X10 Y10
G0 F4500 X177.324 Y106.048
M204 S1800
M205 X8 Y8
G1 F900 X149.196 Y77.92 E170.94308
G1 X149.126 Y77.85
M204 S3000
M205 X10 Y10
G0 F4500 X148.404 Y77.92
M204 S1800
M205 X8 Y8
