;FLAVOR:Marlin
;TIME:18006
;Filament used: 13.7699m
;Layer height: 0.2
;Generated with Cura_SteamEngine 3.3.1
M190 S60
M104 S200
M109 S200
M82 ;absolute extrusion mode
G21 ;metric values
G90 ;absolute positioning
M82 ;set extruder to absolute mode
M107 ;start with the fan off
G28 X0 Y0 ;move X/Y to min endstops
G28 Z0 ;move Z to min endstops
G1 Z15.0 F150 ;move the platform down 15mm
G92 E0 ;zero the extruded length
G1 F200 E3 ;extrude 3mm of feed stock
G92 E0 ;zero the extruded length again
G1 F150
M117 Printing...
G5
G92 E0
G1 F2400 E-5
;LAYER_COUNT:50
;LAYER:0
M106 S255
M204 S3000
M205 X10 Y10
G0 F4500 X38.4 Y70.295 Z0.2
M204 S1800
M205 X8 Y8
;TYPE:SKIRT
G1 F2400 E0
G1 X39.239 Y69.865 E0.0439
G1 X40.085 Y69.507 E0.08667
G1 X40.758 Y69.266 E0.11996
G1 X41.454 Y69.101 E0.15327
G1 X41.846 Y69.043 E0.17172
G1 X43.061 Y68.903 E0.22867
G1 X43.796 Y68.861 E0.26295
G1 X176.715 Y68.893 E6.45222
G1 X177.626 Y68.958 E6.49474
G1 X178.278 Y69.052 E6.52542
G1 X178.979 Y69.194 E6.55872
G1 X179.763 Y69.453 E6.59717
G1 X180.624 Y69.801 E6.64041
G1 X181.271 Y70.106 E6.67372
G1 X182.088 Y70.632 E6.71896
G1 X182.832 Y71.195 E6.76241
G1 X183.377 Y71.657 E6.79568
G1 X184.027 Y72.375 E6.84078
G1 X184.594 Y73.106 E6.88385
G1 X185 Y73.695 E6.91716
G1 X185.432 Y74.538 E6.96127
G1 X185.789 Y75.383 E7.00399
G1 X186.031 Y76.057 E7.03733
G1 X186.195 Y76.753 E7.07063
G1 X186.252 Y77.141 E7.08889
G1 X186.392 Y78.356 E7.14584
G1 X186.434 Y79.09 E7.18007
G1 X186.422 Y141.215 E10.07287
G1 X186.367 Y142.054 E10.11202
G1 X186.254 Y142.908 E10.15214
G1 X186.12 Y143.61 E10.18541
G1 X185.842 Y144.467 E10.22737
G1 X185.493 Y145.33 E10.27071
G1 X185.188 Y145.977 E10.30402
G1 X184.663 Y146.793 E10.3492
G1 X184.1 Y147.537 E10.39265
G1 X183.638 Y148.082 E10.42592
G1 X182.919 Y148.733 E10.47108
G1 X182.189 Y149.299 E10.51409
G1 X181.6 Y149.705 E10.5474
G1 X180.761 Y150.135 E10.5913
G1 X179.915 Y150.493 E10.63408
G1 X179.242 Y150.734 E10.66736
G1 X178.546 Y150.899 E10.70067
G1 X178.154 Y150.957 E10.71912
G1 X176.939 Y151.097 E10.77607
G1 X176.205 Y151.139 E10.81031
G1 X43.49 Y151.127 E16.99007
G1 X42.646 Y151.071 E17.02946
G1 X41.79 Y150.957 E17.06967
G1 X41.088 Y150.823 E17.10295
G1 X40.237 Y150.547 E17.14461
G1 X39.376 Y150.199 E17.18785
G1 X38.729 Y149.894 E17.22116
G1 X37.912 Y149.368 E17.2664
G1 X37.168 Y148.805 E17.30985
G1 X36.623 Y148.343 E17.34311
G1 X35.973 Y147.625 E17.38821
G1 X35.406 Y146.894 E17.43129
G1 X35 Y146.305 E17.4646
G1 X34.568 Y145.462 E17.50871
G1 X34.211 Y144.617 E17.55142
G1 X33.969 Y143.943 E17.58477
G1 X33.767 Y143.004 E17.62949
G1 X33.635 Y142.051 E17.67429
G1 X33.574 Y141.173 E17.71527
G1 X33.575 Y78.829 E20.61827
G1 X33.628 Y78.008 E20.65658
G1 X33.744 Y77.111 E20.6987
G1 X33.875 Y76.408 E20.73199
G1 X34.158 Y75.533 E20.77482
G1 X34.507 Y74.67 E20.81816
G1 X34.812 Y74.023 E20.85147
G1 X35.337 Y73.207 E20.89665
G1 X35.9 Y72.463 E20.9401
G1 X36.362 Y71.918 E20.97336
G1 X37.081 Y71.267 E21.01853
G1 X37.811 Y70.701 E21.06154
G1 X38.4 Y70.295 E21.09485
M204 S3000
M205 X10 Y10
G0 F4500 X38.718 Y70.757
M204 S1800
M205 X8 Y8
G1 F2400 X39.457 Y70.381 E21.13346
G1 X40.303 Y70.023 E21.17624
G1 X40.947 Y69.794 E21.20806
G1 X41.911 Y69.599 E21.25386
G1 X43.126 Y69.459 E21.31081
G1 X43.795 Y69.421 E21.34201
G1 X176.714 Y69.453 E27.53128
G1 X177.546 Y69.513 E27.57012
G1 X178.198 Y69.607 E27.60079
G1 X178.868 Y69.744 E27.63264
G1 X179.553 Y69.973 E27.66627
G1 X180.414 Y70.321 E27.70951
G1 X181.032 Y70.613 E27.74134
G1 X181.75 Y71.078 E27.78117
G1 X182.494 Y71.641 E27.82461
G1 X183.014 Y72.085 E27.85645
G1 X183.585 Y72.719 E27.89618
G1 X184.152 Y73.45 E27.93926
G1 X184.538 Y74.013 E27.97105
G1 X184.917 Y74.756 E28.00988
G1 X185.274 Y75.601 E28.0526
G1 X185.502 Y76.245 E28.08441
G1 X185.696 Y77.206 E28.13006
G1 X185.836 Y78.421 E28.18701
G1 X185.874 Y79.09 E28.21821
G1 X185.862 Y141.215 E31.11101
G1 X185.812 Y141.98 E31.14671
G1 X185.699 Y142.834 E31.18682
G1 X185.569 Y143.505 E31.21865
G1 X185.323 Y144.257 E31.25549
G1 X184.974 Y145.12 E31.29884
G1 X184.681 Y145.738 E31.33068
G1 X184.217 Y146.455 E31.37045
G1 X183.654 Y147.199 E31.4139
G1 X183.21 Y147.719 E31.44574
G1 X182.575 Y148.29 E31.4855
G1 X181.845 Y148.856 E31.52851
G1 X181.282 Y149.243 E31.56032
G1 X180.543 Y149.619 E31.59893
G1 X179.697 Y149.977 E31.64171
G1 X179.053 Y150.206 E31.67353
G1 X178.089 Y150.401 E31.71933
G1 X176.874 Y150.541 E31.77628
G1 X176.205 Y150.579 E31.80748
G1 X43.49 Y150.567 E37.98725
G1 X42.72 Y150.516 E38.02318
G1 X41.864 Y150.402 E38.06339
G1 X41.193 Y150.272 E38.09522
G1 X40.447 Y150.027 E38.13178
G1 X39.586 Y149.679 E38.17502
G1 X38.968 Y149.387 E38.20685
G1 X38.25 Y148.922 E38.24668
G1 X37.506 Y148.359 E38.29013
G1 X36.986 Y147.915 E38.32197
G1 X36.415 Y147.281 E38.3617
G1 X35.848 Y146.55 E38.40477
G1 X35.462 Y145.987 E38.43656
G1 X35.083 Y145.244 E38.4754
G1 X34.726 Y144.399 E38.51811
G1 X34.498 Y143.755 E38.54992
G1 X34.321 Y142.927 E38.58935
G1 X34.189 Y141.974 E38.63415
G1 X34.134 Y141.173 E38.67153
G1 X34.135 Y78.829 E41.57453
G1 X34.183 Y78.08 E41.60948
G1 X34.299 Y77.183 E41.6516
G1 X34.426 Y76.512 E41.6834
G1 X34.677 Y75.743 E41.72106
G1 X35.026 Y74.88 E41.76441
G1 X35.319 Y74.262 E41.79626
G1 X35.783 Y73.545 E41.83602
G1 X36.346 Y72.801 E41.87947
G1 X36.79 Y72.281 E41.91131
G1 X37.425 Y71.71 E41.95107
G1 X38.155 Y71.144 E41.99408
G1 X38.718 Y70.757 E42.0259
M204 S3000
M205 X10 Y10
G0 F4500 X39.035 Y71.221
M204 S1800
M205 X8 Y8
G1 F2400 X39.675 Y70.896 E42.05932
G1 X40.521 Y70.538 E42.10209
G1 X41.134 Y70.323 E42.13234
G1 X41.975 Y70.156 E42.17227
G1 X43.19 Y70.016 E42.22922
G1 X43.795 Y69.981 E42.25744
G1 X176.714 Y70.013 E48.4467
G1 X177.466 Y70.067 E48.48181
G1 X178.118 Y70.161 E48.51248
G1 X178.754 Y70.293 E48.54273
G1 X179.344 Y70.492 E48.57172
G1 X180.205 Y70.84 E48.61496
G1 X180.791 Y71.12 E48.64521
G1 X181.412 Y71.525 E48.67973
G1 X182.156 Y72.088 E48.72317
G1 X182.649 Y72.511 E48.75342
G1 X183.142 Y73.062 E48.78785
G1 X183.709 Y73.793 E48.83093
G1 X184.075 Y74.33 E48.86119
G1 X184.401 Y74.974 E48.8948
G1 X184.758 Y75.819 E48.93751
G1 X184.973 Y76.432 E48.96776
G1 X185.139 Y77.27 E49.00754
G1 X185.279 Y78.485 E49.06449
G1 X185.314 Y79.09 E49.09271
G1 X185.302 Y141.215 E51.98551
G1 X185.256 Y141.907 E52.0178
G1 X185.143 Y142.761 E52.05791
G1 X185.019 Y143.398 E52.08813
G1 X184.804 Y144.048 E52.12001
G1 X184.455 Y144.911 E52.16336
G1 X184.175 Y145.497 E52.1936
G1 X183.77 Y146.117 E52.22808
G1 X183.207 Y146.861 E52.27153
G1 X182.784 Y147.354 E52.30178
G1 X182.232 Y147.848 E52.33627
G1 X181.502 Y148.414 E52.37928
G1 X180.965 Y148.779 E52.40952
G1 X180.325 Y149.104 E52.44294
G1 X179.479 Y149.462 E52.48571
G1 X178.866 Y149.677 E52.51596
G1 X178.025 Y149.844 E52.55589
G1 X176.81 Y149.984 E52.61284
G1 X176.206 Y150.019 E52.64101
G1 X43.491 Y150.007 E58.82078
G1 X42.794 Y149.961 E58.8533
G1 X41.938 Y149.847 E58.89351
G1 X41.301 Y149.722 E58.92374
G1 X40.656 Y149.508 E58.95538
G1 X39.795 Y149.16 E58.99863
G1 X39.209 Y148.88 E59.02887
G1 X38.588 Y148.475 E59.06339
G1 X37.844 Y147.912 E59.10684
G1 X37.351 Y147.489 E59.13708
G1 X36.858 Y146.938 E59.17151
G1 X36.291 Y146.207 E59.21459
G1 X35.925 Y145.67 E59.24485
G1 X35.599 Y145.026 E59.27846
G1 X35.242 Y144.181 E59.32117
G1 X35.027 Y143.568 E59.35142
G1 X34.876 Y142.85 E59.38559
G1 X34.744 Y141.897 E59.43039
G1 X34.694 Y141.173 E59.46418
G1 X34.695 Y78.829 E62.36718
G1 X34.739 Y78.152 E62.39877
G1 X34.855 Y77.255 E62.44088
G1 X34.977 Y76.617 E62.47113
G1 X35.196 Y75.952 E62.50373
G1 X35.545 Y75.089 E62.54708
G1 X35.825 Y74.503 E62.57732
G1 X36.23 Y73.883 E62.6118
G1 X36.793 Y73.139 E62.65525
G1 X37.216 Y72.646 E62.68549
G1 X37.768 Y72.152 E62.71999
G1 X38.498 Y71.586 E62.763
G1 X39.035 Y71.221 E62.79323
M204 S3000
M205 X10 Y10
G1 F2400 E57.79323
G0 F4500 X43.383 Y74.609
G0 X43.582 Y76.119
G0 X177.031 Y76.745
M204 S1800
M205 X8 Y8
;TYPE:WALL-INNER
G1 F2400 E62.79323
G1 F900 X177.549 Y76.959 E62.81933
G1 X177.994 Y77.301 E62.84547
G1 X178.336 Y77.746 E62.8716
G1 X178.55 Y78.264 E62.8977
G1 X178.635 Y78.911 E62.92808
G1 X178.635 Y141.089 E65.82335
G1 X178.55 Y141.736 E65.85374
G1 X178.336 Y142.254 E65.87983
G1 X177.994 Y142.699 E65.90597
G1 X177.549 Y143.041 E65.9321
G1 X177.031 Y143.255 E65.9582
G1 X176.384 Y143.34 E65.98858
G1 X43.616 Y143.34 E72.17082
G1 X42.969 Y143.255 E72.2012
G1 X42.451 Y143.041 E72.2273
G1 X42.006 Y142.699 E72.25344
G1 X41.664 Y142.254 E72.27957
G1 X41.45 Y141.736 E72.30567
G1 X41.365 Y141.089 E72.33605
G1 X41.365 Y78.911 E75.23132
G1 X41.45 Y78.264 E75.26171
G1 X41.664 Y77.746 E75.2878
G1 X42.006 Y77.301 E75.31394
G1 X42.451 Y76.959 E75.34007
G1 X42.969 Y76.745 E75.36617
G1 X43.616 Y76.66 E75.39656
G1 X176.384 Y76.66 E81.57879
G1 X177.031 Y76.745 E81.60918
M204 S3000
M205 X10 Y10
G0 F4500 X177.176 Y76.199
M204 S1800
M205 X8 Y8
G1 F900 X177.832 Y76.471 E81.64224
G1 X178.393 Y76.902 E81.67519
G1 X178.824 Y77.463 E81.70813
G1 X179.096 Y78.119 E81.74119
G1 X179.195 Y78.876 E81.77674
G1 X179.195 Y141.124 E84.67527
G1 X179.096 Y141.881 E84.71082
G1 X178.824 Y142.537 E84.74389
G1 X178.393 Y143.098 E84.77683
G1 X177.832 Y143.529 E84.80977
G1 X177.176 Y143.801 E84.84284
G1 X176.419 Y143.9 E84.87839
G1 X43.581 Y143.9 E91.06388
G1 X42.824 Y143.801 E91.09943
G1 X42.168 Y143.529 E91.1325
G1 X41.607 Y143.098 E91.16544
G1 X41.176 Y142.537 E91.19838
G1 X40.904 Y141.881 E91.23145
G1 X40.805 Y141.124 E91.267
G1 X40.805 Y78.876 E94.16553
G1 X40.904 Y78.119 E94.20108
G1 X41.176 Y77.463 E94.23415
G1 X41.607 Y76.902 E94.26709
G1 X42.168 Y76.471 E94.30003
G1 X42.824 Y76.199 E94.3331
G1 X43.581 Y76.1 E94.36865
G1 X176.419 Y76.1 E100.55414
G1 X177.176 Y76.199 E100.58969
M204 S3000
M205 X10 Y10
G0 F4500 X177.323 Y75.654
M204 S1800
M205 X8 Y8
;TYPE:WALL-OUTER
G1 F900 X178.114 Y75.982 E100.62956
G1 X178.792 Y76.503 E100.66938
G1 X179.313 Y77.181 E100.70919
G1 X179.641 Y77.972 E100.74907
G1 X179.755 Y78.841 E100.78988
G1 X179.755 Y141.159 E103.69166
G1 X179.641 Y142.028 E103.73247
G1 X179.313 Y142.819 E103.77235
G1 X178.792 Y143.497 E103.81216
G1 X178.114 Y144.018 E103.85198
G1 X177.323 Y144.346 E103.89185
G1 X176.454 Y144.46 E103.93266
G1 X43.546 Y144.46 E110.12142
G1 X42.677 Y144.346 E110.16223
G1 X41.886 Y144.018 E110.2021
G1 X41.208 Y143.497 E110.24192
G1 X40.687 Y142.819 E110.28173
G1 X40.359 Y142.028 E110.3216
G1 X40.245 Y141.159 E110.36241
G1 X40.245 Y78.841 E113.2642
G1 X40.359 Y77.972 E113.30501
G1 X40.687 Y77.181 E113.34489
G1 X41.208 Y76.503 E113.3847
G1 X41.886 Y75.982 E113.42452
G1 X42.677 Y75.654 E113.46439
G1 X43.546 Y75.54 E113.5052
G1 X176.454 Y75.54 E119.69395
G1 X177.323 Y75.654 E119.73476
M204 S3000
M205 X10 Y10
G0 F4500 X177.507 Y75.73
G0 X177.254 Y76.339
G0 X176.887 Y77.281
M204 S1800
M205 X8 Y8
;TYPE:SKIN
G1 F900 X177.272 Y77.44 E119.75416
G1 X177.601 Y77.694 E119.77351
G1 X177.855 Y78.023 E119.79287
G1 X178.014 Y78.408 E119.81226
G1 X178.085 Y78.952 E119.83781
G1 X178.085 Y141.048 E122.72926
G1 X178.014 Y141.592 E122.75481
G1 X177.855 Y141.977 E122.7742
G1 X177.601 Y142.306 E122.79356
G1 X177.272 Y142.56 E122.81291
G1 X176.887 Y142.719 E122.83231
G1 X176.343 Y142.79 E122.85785
G1 X43.657 Y142.79 E129.03627
G1 X43.113 Y142.719 E129.06181
G1 X42.728 Y142.56 E129.08121
G1 X42.399 Y142.306 E129.10056
G1 X42.145 Y141.977 E129.11992
G1 X41.986 Y141.592 E129.13931
G1 X41.915 Y141.048 E129.16486
G1 X41.915 Y78.952 E132.05631
G1 X41.986 Y78.408 E132.08185
G1 X42.145 Y78.023 E132.10125
G1 X42.399 Y77.694 E132.1206
G1 X42.728 Y77.44 E132.13996
G1 X43.113 Y77.281 E132.15935
G1 X43.657 Y77.21 E132.1849
G1 X176.343 Y77.21 E138.36332
G1 X176.887 Y77.281 E138.38886
M204 S3000
M205 X10 Y10
G0 F4500 X177.802 Y78.807
M204 S1800
M205 X8 Y8
G1 F900 X176.486 Y77.491 E138.47552
G1 X176.416 Y77.421
M204 S3000
M205 X10 Y10
G0 F4500 X175.672 Y77.469
M204 S1800
M205 X8 Y8
G1 F900 X177.824 Y79.621 E138.61723
G1 X177.894 Y79.691
M204 S3000
M205 X10 Y10
G0 F4500 X177.824 Y80.413
M204 S1800
M205 X8 Y8
G1 F900 X174.88 Y77.469 E138.8111
G1 X174.81 Y77.399
M204 S3000
M205 X10 Y10
G0 F4500 X174.088 Y77.469
M204 S1800
M205 X8 Y8
G1 F900 X177.824 Y81.205 E139.05712
G1 X177.894 Y81.275
M204 S3000
M205 X10 Y10
G0 F4500 X177.824 Y81.997
M204 S1800
M205 X8 Y8
G1 F900 X173.297 Y77.469 E139.35527
G1 X173.227 Y77.399
M204 S3000
M205 X10 Y10
G0 F4500 X172.505 Y77.469
M204 S1800
M205 X8 Y8
G1 F900 X177.824 Y82.789 E139.70557
G1 X177.894 Y82.859
M204 S3000
M205 X10 Y10
G0 F4500 X177.824 Y83.581
M204 S1800
M205 X8 Y8
G1 F900 X171.713 Y77.469 E140.10802
G1 X171.643 Y77.399
M204 S3000
M205 X10 Y10
G0 F4500 X170.921 Y77.469
M204 S1800
M205 X8 Y8
G1 F900 X177.824 Y84.373 E140.56263
G1 X177.894 Y84.443
M204 S3000
M205 X10 Y10
G0 F4500 X177.824 Y85.165
M204 S1800
M205 X8 Y8
G1 F900 X170.129 Y77.469 E141.06939
G1 X170.059 Y77.399
M204 S3000
M205 X10 Y10
G0 F4500 X169.337 Y77.469
M204 S1800
M205 X8 Y8
G1 F900 X177.824 Y85.957 E141.6283
G1 X177.894 Y86.027
M204 S3000
M205 X10 Y10
G0 F4500 X177.824 Y86.749
M204 S1800
M205 X8 Y8
G1 F900 X168.545 Y77.469 E142.23938
G1 X168.475 Y77.399
M204 S3000
M205 X10 Y10
G0 F4500 X167.753 Y77.469
M204 S1800
M205 X8 Y8
G1 F900 X177.824 Y87.541 E142.9026
G1 X177.894 Y87.611
M204 S3000
M205 X10 Y10
G0 F4500 X177.824 Y88.333
M204 S1800
M205 X8 Y8
G1 F900 X166.961 Y77.469 E143.61798
G1 X166.891 Y77.399
M204 S3000
M205 X10 Y10
G0 F4500 X166.169 Y77.469
M204 S1800
M205 X8 Y8
G1 F900 X177.824 Y89.125 E144.38552
G1 X177.894 Y89.195
M204 S3000
M205 X10 Y10
G0 F4500 X177.824 Y89.917
M204 S1800
M205 X8 Y8
G1 F900 X165.377 Y77.469 E145.2052
G1 X165.307 Y77.399
M204 S3000
M205 X10 Y10
G0 F4500 X164.585 Y77.469
M204 S1800
M205 X8 Y8
G1 F900 X177.824 Y90.709 E146.07705
G1 X177.894 Y90.779
M204 S3000
M205 X10 Y10
G0 F4500 X177.824 Y91.501
M204 S1800
M205 X8 Y8
G1 F900 X163.793 Y77.469 E147.00105
G1 X163.723 Y77.399
M204 S3000
M205 X10 Y10
G0 F4500 X163.001 Y77.469
M204 S1800
M205 X8 Y8
G1 F900 X177.824 Y92.292 E147.97717
G1 X177.894 Y92.362
M204 S3000
M205 X10 Y10
G0 F4500 X177.824 Y93.084
M204 S1800
M205 X8 Y8
G1 F900 X162.209 Y77.469 E149.00544
G1 X162.139 Y77.399
M204 S3000
M205 X10 Y10
G0 F4500 X161.417 Y77.469
M204 S1800
M205 X8 Y8
G1 F900 X177.824 Y93.876 E150.08587
G1 X177.894 Y93.946
M204 S3000
M205 X10 Y10
G0 F4500 X177.824 Y94.668
M204 S1800
M205 X8 Y8
G1 F900 X160.625 Y77.469 E151.21845
G1 X160.555 Y77.399
M204 S3000
M205 X10 Y10
G0 F4500 X159.833 Y77.469
M204 S1800
M205 X8 Y8
G1 F900 X177.824 Y95.46 E152.40319
G1 X177.894 Y95.53
M204 S3000
M205 X10 Y10
G0 F4500 X177.824 Y96.252
M204 S1800
M205 X8 Y8
G1 F900 X159.041 Y77.469 E153.64008
G1 X158.971 Y77.399
M204 S3000
M205 X10 Y10
G0 F4500 X158.249 Y77.469
M204 S1800
M205 X8 Y8
G1 F900 X177.824 Y97.044 E154.92913
G1 X177.894 Y97.114
M204 S3000
M205 X10 Y10
G0 F4500 X177.824 Y97.836
M204 S1800
M205 X8 Y8
G1 F900 X157.457 Y77.469 E156.27033
G1 X157.387 Y77.399
M204 S3000
M205 X10 Y10
G0 F4500 X156.665 Y77.469
M204 S1800
M205 X8 Y8
G1 F900 X177.824 Y98.628 E157.66369
G1 X177.894 Y98.698
M204 S3000
M205 X10 Y10
G0 F4500 X177.824 Y99.42
M204 S1800
M205 X8 Y8
G1 F900 X155.873 Y77.469 E159.1092
G1 X155.803 Y77.399
M204 S3000
M205 X10 Y10
G0 F4500 X155.081 Y77.469
M204 S1800
M205 X8 Y8
G1 F900 X177.824 Y100.212 E160.60687
G1 X177.894 Y100.282
M204 S3000
M205 X10 Y10
G0 F4500 X177.824 Y101.004
M204 S1800
M205 X8 Y8
G1 F900 X154.289 Y77.469 E162.15669
G1 X154.219 Y77.399
M204 S3000
M205 X10 Y10
G0 F4500 X153.498 Y77.469
M204 S1800
M205 X8 Y8
G1 F900 X177.824 Y101.796 E163.75863
G1 X177.894 Y101.866
M204 S3000
M205 X10 Y10
G0 F4500 X177.824 Y102.588
M204 S1800
M205 X8 Y8
G1 F900 X152.706 Y77.469 E165.41272
G1 X152.636 Y77.399
M204 S3000
M205 X10 Y10
G0 F4500 X151.914 Y77.469
M204 S1800
M205 X8 Y8
G1 F900 X177.824 Y103.38 E167.11897
G1 X177.894 Y103.45
M204 S3000
M205 X10 Y10
G0 F4500 X177.824 Y104.172
M204 S1800
M205 X8 Y8
G1 F900 X151.122 Y77.469 E168.87738
G1 X151.052 Y77.399
M204 S3000
M205 X10 Y10
G0 F4500 X150.33 Y77.469
M204 S1800
M205 X8 Y8
G1 F900 X177.824 Y104.964 E170.68794
G1 X177.894 Y105.034
M204 S3000
M205 X10 Y10
G0 F4500 X177.824 Y105.756
M204 S1800
M205 X8 Y8
G1 F900 X149.538 Y77.469 E172.55065
G1 X149.468 Y77.399
M204 S3000
