;FLAVOR:Marlin
;TIME:17871
;Filament used: 13.7096m
;Layer height: 0.2
;Generated with Cura_SteamEngine 3.3.1
M190 S60
M104 S200
M109 S200
M82 ;absolute extrusion mode
G21 ;metric values
G90 ;absolute positioning
M82 ;set extruder to absolute mode
M107 ;start with the fan off
G28 X0 Y0 ;move X/Y to min endstops
G28 Z0 ;move Z to min endstops
G1 Z15.0 F150 ;move the platform down 15mm
G92 E0 ;zero the extruded length
G1 F200 E3 ;extrude 3mm of feed stock
G92 E0 ;zero the extruded length again
G1 F150
M117 Printing...
G5
G92 E0
G1 F2400 E-5
;LAYER_COUNT:50
;LAYER:0
M106 S255
M204 S3000
M205 X10 Y10
G0 F4500 X38.6 Y70.445 Z0.2
M204 S1800
M205 X8 Y8
;TYPE:SKIRT
G1 F2400 E0
G1 X39.439 Y70.015 E0.0439
G1 X40.285 Y69.657 E0.08667
G1 X40.958 Y69.416 E0.11996
G1 X41.654 Y69.251 E0.15327
G1 X42.046 Y69.193 E0.17172
G1 X43.261 Y69.053 E0.22867
G1 X43.996 Y69.011 E0.26295
G1 X176.515 Y69.043 E6.43359
G1 X177.426 Y69.108 E6.47612
G1 X178.078 Y69.202 E6.50679
G1 X178.779 Y69.344 E6.5401
G1 X179.563 Y69.603 E6.57854
G1 X180.424 Y69.951 E6.62179
G1 X181.071 Y70.256 E6.65509
G1 X181.888 Y70.782 E6.70034
G1 X182.632 Y71.345 E6.74378
G1 X183.177 Y71.807 E6.77705
G1 X183.827 Y72.525 E6.82215
G1 X184.394 Y73.256 E6.86523
G1 X184.8 Y73.845 E6.89854
G1 X185.232 Y74.688 E6.94265
G1 X185.589 Y75.533 E6.98536
G1 X185.831 Y76.207 E7.01871
G1 X185.995 Y76.903 E7.052
G1 X186.052 Y77.291 E7.07026
G1 X186.192 Y78.506 E7.12721
G1 X186.234 Y79.24 E7.16145
G1 X186.222 Y141.065 E10.04028
G1 X186.167 Y141.904 E10.07943
G1 X186.054 Y142.758 E10.11954
G1 X185.92 Y143.46 E10.15282
G1 X185.642 Y144.317 E10.19477
G1 X185.293 Y145.18 E10.23812
G1 X184.988 Y145.827 E10.27143
G1 X184.463 Y146.643 E10.31661
G1 X183.9 Y147.387 E10.36005
G1 X183.438 Y147.932 E10.39332
G1 X182.719 Y148.583 E10.43848
G1 X181.989 Y149.149 E10.4815
G1 X181.4 Y149.555 E10.51481
G1 X180.561 Y149.985 E10.55871
G1 X179.715 Y150.343 E10.60148
G1 X179.042 Y150.584 E10.63477
G1 X178.346 Y150.749 E10.66808
G1 X177.954 Y150.807 E10.68653
G1 X176.739 Y150.947 E10.74348
G1 X176.005 Y150.989 E10.77771
G1 X43.69 Y150.977 E16.93885
G1 X42.846 Y150.921 E16.97824
G1 X41.99 Y150.807 E17.01845
G1 X41.288 Y150.673 E17.05173
G1 X40.437 Y150.397 E17.09339
G1 X39.576 Y150.049 E17.13663
G1 X38.929 Y149.744 E17.16993
G1 X38.112 Y149.218 E17.21518
G1 X37.368 Y148.655 E17.25863
G1 X36.823 Y148.193 E17.29189
G1 X36.173 Y147.475 E17.33699
G1 X35.606 Y146.744 E17.38007
G1 X35.2 Y146.155 E17.41338
G1 X34.768 Y145.312 E17.45749
G1 X34.411 Y144.467 E17.5002
G1 X34.169 Y143.793 E17.53355
G1 X33.967 Y142.854 E17.57827
G1 X33.835 Y141.901 E17.62307
G1 X33.774 Y141.023 E17.66405
G1 X33.775 Y78.979 E20.55308
G1 X33.828 Y78.158 E20.59139
G1 X33.944 Y77.261 E20.63351
G1 X34.075 Y76.558 E20.6668
G1 X34.358 Y75.683 E20.70963
G1 X34.707 Y74.82 E20.75297
G1 X35.012 Y74.173 E20.78628
G1 X35.537 Y73.357 E20.83146
G1 X36.1 Y72.613 E20.87491
G1 X36.562 Y72.068 E20.90817
G1 X37.281 Y71.417 E20.95334
G1 X38.011 Y70.851 E20.99635
G1 X38.6 Y70.445 E21.02966
M204 S3000
M205 X10 Y10
G0 F4500 X38.918 Y70.907
M204 S1800
M205 X8 Y8
G1 F2400 X39.657 Y70.531 E21.06827
G1 X40.503 Y70.173 E21.11105
G1 X41.147 Y69.944 E21.14287
G1 X42.111 Y69.749 E21.18867
G1 X43.326 Y69.609 E21.24562
G1 X43.995 Y69.571 E21.27682
G1 X176.514 Y69.603 E27.44746
G1 X177.346 Y69.663 E27.4863
G1 X177.998 Y69.757 E27.51698
G1 X178.668 Y69.894 E27.54882
G1 X179.353 Y70.123 E27.58245
G1 X180.214 Y70.471 E27.62569
G1 X180.832 Y70.763 E27.65752
G1 X181.55 Y71.228 E27.69735
G1 X182.294 Y71.791 E27.7408
G1 X182.814 Y72.235 E27.77264
G1 X183.385 Y72.869 E27.81237
G1 X183.952 Y73.6 E27.85544
G1 X184.338 Y74.163 E27.88723
G1 X184.717 Y74.906 E27.92607
G1 X185.074 Y75.751 E27.96878
G1 X185.302 Y76.395 E28.00059
G1 X185.496 Y77.356 E28.04624
G1 X185.636 Y78.571 E28.10319
G1 X185.674 Y79.24 E28.1344
G1 X185.662 Y141.065 E31.01323
G1 X185.612 Y141.83 E31.04892
G1 X185.499 Y142.684 E31.08904
G1 X185.369 Y143.355 E31.12086
G1 X185.123 Y144.107 E31.15771
G1 X184.774 Y144.97 E31.20105
G1 X184.481 Y145.588 E31.2329
G1 X184.017 Y146.305 E31.27267
G1 X183.454 Y147.049 E31.31611
G1 X183.01 Y147.569 E31.34795
G1 X182.375 Y148.14 E31.38771
G1 X181.645 Y148.706 E31.43073
G1 X181.082 Y149.093 E31.46254
G1 X180.343 Y149.469 E31.50115
G1 X179.497 Y149.827 E31.54392
G1 X178.853 Y150.056 E31.57575
G1 X177.889 Y150.251 E31.62155
G1 X176.674 Y150.391 E31.6785
G1 X176.005 Y150.429 E31.7097
G1 X43.69 Y150.417 E37.87084
G1 X42.92 Y150.366 E37.90677
G1 X42.064 Y150.252 E37.94698
G1 X41.393 Y150.122 E37.97881
G1 X40.647 Y149.877 E38.01537
G1 X39.786 Y149.529 E38.05861
G1 X39.168 Y149.237 E38.09044
G1 X38.45 Y148.772 E38.13027
G1 X37.706 Y148.209 E38.17372
G1 X37.186 Y147.765 E38.20556
G1 X36.615 Y147.131 E38.24529
G1 X36.048 Y146.4 E38.28836
G1 X35.662 Y145.837 E38.32015
G1 X35.283 Y145.094 E38.35899
G1 X34.926 Y144.249 E38.4017
G1 X34.698 Y143.605 E38.43351
G1 X34.521 Y142.777 E38.47294
G1 X34.389 Y141.824 E38.51774
G1 X34.334 Y141.023 E38.55512
G1 X34.335 Y78.979 E41.44415
G1 X34.383 Y78.23 E41.4791
G1 X34.499 Y77.333 E41.52122
G1 X34.626 Y76.662 E41.55302
G1 X34.877 Y75.893 E41.59068
G1 X35.226 Y75.03 E41.63403
G1 X35.519 Y74.412 E41.66588
G1 X35.983 Y73.695 E41.70564
G1 X36.546 Y72.951 E41.74909
G1 X36.99 Y72.431 E41.78093
G1 X37.625 Y71.86 E41.82069
G1 X38.355 Y71.294 E41.8637
G1 X38.918 Y70.907 E41.89552
M204 S3000
M205 X10 Y10
G0 F4500 X39.235 Y71.371
M204 S1800
M205 X8 Y8
G1 F2400 X39.875 Y71.046 E41.92894
G1 X40.721 Y70.688 E41.97172
G1 X41.334 Y70.473 E42.00196
G1 X42.175 Y70.306 E42.04189
G1 X43.39 Y70.166 E42.09884
G1 X43.995 Y70.131 E42.12706
G1 X176.514 Y70.163 E48.2977
G1 X177.266 Y70.217 E48.3328
G1 X177.918 Y70.311 E48.36348
G1 X178.554 Y70.443 E48.39372
G1 X179.144 Y70.642 E48.42272
G1 X180.005 Y70.99 E48.46596
G1 X180.591 Y71.27 E48.4962
G1 X181.212 Y71.675 E48.53072
G1 X181.956 Y72.238 E48.57417
G1 X182.449 Y72.661 E48.60442
G1 X182.942 Y73.212 E48.63884
G1 X183.509 Y73.943 E48.68192
G1 X183.875 Y74.48 E48.71218
G1 X184.201 Y75.124 E48.74579
G1 X184.558 Y75.969 E48.78851
G1 X184.773 Y76.582 E48.81876
G1 X184.939 Y77.42 E48.85853
G1 X185.079 Y78.635 E48.91548
G1 X185.114 Y79.24 E48.9437
G1 X185.102 Y141.065 E51.82253
G1 X185.056 Y141.757 E51.85483
G1 X184.943 Y142.611 E51.89494
G1 X184.819 Y143.248 E51.92516
G1 X184.604 Y143.898 E51.95704
G1 X184.255 Y144.761 E52.00038
G1 X183.975 Y145.347 E52.03062
G1 X183.57 Y145.967 E52.06511
G1 X183.007 Y146.711 E52.10855
G1 X182.584 Y147.204 E52.1388
G1 X182.032 Y147.698 E52.17329
G1 X181.302 Y148.264 E52.21631
G1 X180.765 Y148.629 E52.24654
G1 X180.125 Y148.954 E52.27996
G1 X179.279 Y149.312 E52.32274
G1 X178.666 Y149.527 E52.35299
G1 X177.825 Y149.694 E52.39291
G1 X176.61 Y149.834 E52.44986
G1 X176.006 Y149.869 E52.47804
G1 X43.691 Y149.857 E58.63918
G1 X42.994 Y149.811 E58.6717
G1 X42.138 Y149.697 E58.71191
G1 X41.501 Y149.572 E58.74214
G1 X40.856 Y149.358 E58.77378
G1 X39.995 Y149.01 E58.81703
G1 X39.409 Y148.73 E58.84727
G1 X38.788 Y148.325 E58.88179
G1 X38.044 Y147.762 E58.92523
G1 X37.551 Y147.339 E58.95548
G1 X37.058 Y146.788 E58.98991
G1 X36.491 Y146.057 E59.03299
G1 X36.125 Y145.52 E59.06325
G1 X35.799 Y144.876 E59.09686
G1 X35.442 Y144.031 E59.13957
G1 X35.227 Y143.418 E59.16982
G1 X35.076 Y142.7 E59.20399
G1 X34.944 Y141.747 E59.24879
G1 X34.894 Y141.023 E59.28258
G1 X34.895 Y78.979 E62.17161
G1 X34.939 Y78.302 E62.2032
G1 X35.055 Y77.405 E62.24531
G1 X35.177 Y76.767 E62.27556
G1 X35.396 Y76.102 E62.30816
G1 X35.745 Y75.239 E62.35151
G1 X36.025 Y74.653 E62.38175
G1 X36.43 Y74.033 E62.41623
G1 X36.993 Y73.289 E62.45968
G1 X37.416 Y72.796 E62.48992
G1 X37.968 Y72.302 E62.52442
G1 X38.698 Y71.736 E62.56743
G1 X39.235 Y71.371 E62.59766
M204 S3000
M205 X10 Y10
G1 F2400 E57.59766
G0 F4500 X43.583 Y74.759
G0 X43.782 Y76.269
G0 X176.831 Y76.895
M204 S1800
M205 X8 Y8
;TYPE:WALL-INNER
G1 F2400 E62.59766
G1 F900 X177.349 Y77.109 E62.62376
G1 X177.794 Y77.451 E62.6499
G1 X178.136 Y77.896 E62.67603
G1 X178.35 Y78.414 E62.70213
G1 X178.435 Y79.061 E62.73251
G1 X178.435 Y140.939 E65.61381
G1 X178.35 Y141.586 E65.6442
G1 X178.136 Y142.104 E65.6703
G1 X177.794 Y142.549 E65.69643
G1 X177.349 Y142.891 E65.72256
G1 X176.831 Y143.105 E65.74866
G1 X176.184 Y143.19 E65.77905
G1 X43.816 Y143.19 E71.94265
G1 X43.169 Y143.105 E71.97304
G1 X42.651 Y142.891 E71.99914
G1 X42.206 Y142.549 E72.02527
G1 X41.864 Y142.104 E72.05141
G1 X41.65 Y141.586 E72.0775
G1 X41.565 Y140.939 E72.10789
G1 X41.565 Y79.061 E74.98919
G1 X41.65 Y78.414 E75.01957
G1 X41.864 Y77.896 E75.04567
G1 X42.206 Y77.451 E75.0718
G1 X42.651 Y77.109 E75.09794
G1 X43.169 Y76.895 E75.12404
G1 X43.816 Y76.81 E75.15442
G1 X176.184 Y76.81 E81.31803
G1 X176.831 Y76.895 E81.34842
M204 S3000
M205 X10 Y10
G0 F4500 X176.976 Y76.349
M204 S1800
M205 X8 Y8
G1 F900 X177.632 Y76.621 E81.38148
G1 X178.193 Y77.052 E81.41443
G1 X178.624 Y77.613 E81.44737
G1 X178.896 Y78.269 E81.48044
G1 X178.995 Y79.026 E81.51598
G1 X178.995 Y140.974 E84.40054
G1 X178.896 Y141.731 E84.43609
G1 X178.624 Y142.387 E84.46916
G1 X178.193 Y142.948 E84.5021
G1 X177.632 Y143.379 E84.53504
G1 X176.976 Y143.651 E84.56811
G1 X176.219 Y143.75 E84.60366
G1 X43.781 Y143.75 E90.77053
G1 X43.024 Y143.651 E90.80608
G1 X42.368 Y143.379 E90.83915
G1 X41.807 Y142.948 E90.87209
G1 X41.376 Y142.387 E90.90503
G1 X41.104 Y141.731 E90.9381
G1 X41.005 Y140.974 E90.97365
G1 X41.005 Y79.026 E93.8582
G1 X41.104 Y78.269 E93.89375
G1 X41.376 Y77.613 E93.92682
G1 X41.807 Y77.052 E93.95976
G1 X42.368 Y76.621 E93.9927
G1 X43.024 Y76.349 E94.02577
G1 X43.781 Y76.25 E94.06132
G1 X176.219 Y76.25 E100.22819
G1 X176.976 Y76.349 E100.26374
M204 S3000
M205 X10 Y10
G0 F4500 X177.123 Y75.804
M204 S1800
M205 X8 Y8
;TYPE:WALL-OUTER
G1 F900 X177.914 Y76.132 E100.30361
G1 X178.592 Y76.653 E100.34343
G1 X179.113 Y77.331 E100.38324
G1 X179.441 Y78.122 E100.42312
G1 X179.555 Y78.991 E100.46393
G1 X179.555 Y141.009 E103.35175
G1 X179.441 Y141.878 E103.39256
G1 X179.113 Y142.669 E103.43243
G1 X178.592 Y143.347 E103.47224
G1 X177.914 Y143.868 E103.51206
G1 X177.123 Y144.196 E103.55193
G1 X176.254 Y144.31 E103.59274
G1 X43.746 Y144.31 E109.76287
G1 X42.877 Y144.196 E109.80368
G1 X42.086 Y143.868 E109.84356
G1 X41.408 Y143.347 E109.88337
G1 X40.887 Y142.669 E109.92319
G1 X40.559 Y141.878 E109.96306
G1 X40.445 Y141.009 E110.00387
G1 X40.445 Y78.991 E112.89169
G1 X40.559 Y78.122 E112.9325
G1 X40.887 Y77.331 E112.97237
G1 X41.408 Y76.653 E113.01219
G1 X42.086 Y76.132 E113.052
G1 X42.877 Y75.804 E113.09188
G1 X43.746 Y75.69 E113.13269
G1 X176.254 Y75.69 E119.30281
G1 X177.123 Y75.804 E119.34363
M204 S3000
M205 X10 Y10
G0 F4500 X177.307 Y75.88
G0 X177.054 Y76.489
G0 X176.687 Y77.431
M204 S1800
M205 X8 Y8
;TYPE:SKIN
G1 F900 X177.072 Y77.59 E119.36302
G1 X177.401 Y77.844 E119.38238
G1 X177.655 Y78.173 E119.40173
G1 X177.814 Y78.558 E119.42113
G1 X177.885 Y79.102 E119.44667
G1 X177.885 Y140.898 E122.32415
G1 X177.814 Y141.442 E122.3497
G1 X177.655 Y141.827 E122.36909
G1 X177.401 Y142.156 E122.38845
G1 X177.072 Y142.41 E122.4078
G1 X176.687 Y142.569 E122.4272
G1 X176.143 Y142.64 E122.45274
G1 X43.857 Y142.64 E128.61253
G1 X43.313 Y142.569 E128.63808
G1 X42.928 Y142.41 E128.65747
G1 X42.599 Y142.156 E128.67683
G1 X42.345 Y141.827 E128.69618
G1 X42.186 Y141.442 E128.71558
G1 X42.115 Y140.898 E128.74112
G1 X42.115 Y79.102 E131.6186
G1 X42.186 Y78.558 E131.64415
G1 X42.345 Y78.173 E131.66355
G1 X42.599 Y77.844 E131.6829
G1 X42.928 Y77.59 E131.70225
G1 X43.313 Y77.431 E131.72165
G1 X43.857 Y77.36 E131.7472
G1 X176.143 Y77.36 E137.90699
G1 X176.687 Y77.431 E137.93253
M204 S3000
M205 X10 Y10
G0 F4500 X177.514 Y78.519
M204 S1800
M205 X8 Y8
G1 F900 X176.725 Y77.73 E137.98449
M204 S3000
M205 X10 Y10
G0 F4500 X175.822 Y77.619
M204 S1800
M205 X8 Y8
G1 F900 X177.624 Y79.421 E138.10315
G1 X177.694 Y79.491
M204 S3000
M205 X10 Y10
G0 F4500 X177.624 Y80.213
M204 S1800
M205 X8 Y8
G1 F900 X175.03 Y77.619 E138.27397
G1 X174.96 Y77.549
M204 S3000
M205 X10 Y10
G0 F4500 X174.238 Y77.619
M204 S1800
M205 X8 Y8
G1 F900 X177.624 Y81.005 E138.49695
G1 X177.694 Y81.075
M204 S3000
M205 X10 Y10
G0 F4500 X177.624 Y81.797
M204 S1800
M205 X8 Y8
G1 F900 X173.446 Y77.619 E138.77208
G1 X173.376 Y77.549
M204 S3000
M205 X10 Y10
G0 F4500 X172.654 Y77.619
M204 S1800
M205 X8 Y8
G1 F900 X177.624 Y82.589 E139.09936
G1 X177.694 Y82.659
M204 S3000
M205 X10 Y10
G0 F4500 X177.624 Y83.381
M204 S1800
M205 X8 Y8
G1 F900 X171.863 Y77.619 E139.47876
G1 X171.793 Y77.549
M204 S3000
M205 X10 Y10
G0 F4500 X171.071 Y77.619
M204 S1800
M205 X8 Y8
G1 F900 X177.624 Y84.173 E139.91032
G1 X177.694 Y84.243
M204 S3000
M205 X10 Y10
G0 F4500 X177.624 Y84.965
M204 S1800
M205 X8 Y8
G1 F900 X170.279 Y77.619 E140.39404
G1 X170.209 Y77.549
M204 S3000
M205 X10 Y10
G0 F4500 X169.487 Y77.619
M204 S1800
M205 X8 Y8
G1 F900 X177.624 Y85.757 E140.9299
G1 X177.694 Y85.827
M204 S3000
M205 X10 Y10
G0 F4500 X177.624 Y86.549
M204 S1800
M205 X8 Y8
G1 F900 X168.695 Y77.619 E141.51793
G1 X168.625 Y77.549
M204 S3000
M205 X10 Y10
G0 F4500 X167.903 Y77.619
M204 S1800
M205 X8 Y8
G1 F900 X177.624 Y87.341 E142.1581
G1 X177.694 Y87.411
M204 S3000
M205 X10 Y10
G0 F4500 X177.624 Y88.133
M204 S1800
M205 X8 Y8
G1 F900 X167.111 Y77.619 E142.85044
G1 X167.041 Y77.549
M204 S3000
M205 X10 Y10
G0 F4500 X166.319 Y77.619
M204 S1800
M205 X8 Y8
G1 F900 X177.624 Y88.925 E143.59492
G1 X177.694 Y88.995
M204 S3000
M205 X10 Y10
G0 F4500 X177.624 Y89.717
M204 S1800
M205 X8 Y8
G1 F900 X165.527 Y77.619 E144.39156
G1 X165.457 Y77.549
M204 S3000
M205 X10 Y10
G0 F4500 X164.735 Y77.619
M204 S1800
M205 X8 Y8
G1 F900 X177.624 Y90.508 E145.24033
G1 X177.694 Y90.578
M204 S3000
M205 X10 Y10
G0 F4500 X177.624 Y91.3
M204 S1800
M205 X8 Y8
G1 F900 X163.943 Y77.619 E146.14124
G1 X163.873 Y77.549
M204 S3000
M205 X10 Y10
G0 F4500 X163.151 Y77.619
M204 S1800
M205 X8 Y8
G1 F900 X177.624 Y92.092 E147.09432
G1 X177.694 Y92.162
M204 S3000
M205 X10 Y10
G0 F4500 X177.624 Y92.884
M204 S1800
M205 X8 Y8
G1 F900 X162.359 Y77.619 E148.09954
G1 X162.289 Y77.549
M204 S3000
M205 X10 Y10
G0 F4500 X161.567 Y77.619
M204 S1800
M205 X8 Y8
G1 F900 X177.624 Y93.676 E149.15692
G1 X177.694 Y93.746
M204 S3000
M205 X10 Y10
G0 F4500 X177.624 Y94.468
M204 S1800
M205 X8 Y8
G1 F900 X160.775 Y77.619 E150.26646
G1 X160.705 Y77.549
M204 S3000
M205 X10 Y10
G0 F4500 X159.983 Y77.619
M204 S1800
M205 X8 Y8
G1 F900 X177.624 Y95.26 E151.42815
G1 X177.694 Y95.33
M204 S3000
M205 X10 Y10
G0 F4500 X177.624 Y96.052
M204 S1800
M205 X8 Y8
G1 F900 X159.191 Y77.619 E152.64199
G1 X159.121 Y77.549
M204 S3000
M205 X10 Y10
G0 F4500 X158.399 Y77.619
M204 S1800
M205 X8 Y8
G1 F900 X177.624 Y96.844 E153.90799
G1 X177.694 Y96.914
M204 S3000
M205 X10 Y10
G0 F4500 X177.624 Y97.636
M204 S1800
M205 X8 Y8
G1 F900 X157.607 Y77.619 E155.22615
G1 X157.537 Y77.549
M204 S3000
M205 X10 Y10
G0 F4500 X156.815 Y77.619
M204 S1800
M205 X8 Y8
G1 F900 X177.624 Y98.428 E156.59645
G1 X177.694 Y98.498
M204 S3000
M205 X10 Y10
G0 F4500 X177.624 Y99.22
M204 S1800
M205 X8 Y8
G1 F900 X156.023 Y77.619 E158.01892
G1 X155.953 Y77.549
M204 S3000
M205 X10 Y10
G0 F4500 X155.231 Y77.619
M204 S1800
M205 X8 Y8
G1 F900 X177.624 Y100.012 E159.49353
G1 X177.694 Y100.082
M204 S3000
M205 X10 Y10
G0 F4500 X177.624 Y100.804
M204 S1800
M205 X8 Y8
G1 F900 X154.439 Y77.619 E161.02031
G1 X154.369 Y77.549
M204 S3000
M205 X10 Y10
G0 F4500 X153.647 Y77.619
M204 S1800
M205 X8 Y8
G1 F900 X177.624 Y101.596 E162.59923
G1 X177.694 Y101.666
M204 S3000
M205 X10 Y10
G0 F4500 X177.624 Y102.388
M204 S1800
M205 X8 Y8
G1 F900 X152.855 Y77.619 E164.23031
G1 X152.785 Y77.549
M204 S3000
M205 X10 Y10
G0 F4500 X152.064 Y77.619
M204 S1800
M205 X8 Y8
G1 F900 X177.624 Y103.18 E165.91352
G1 X177.694 Y103.25
M204 S3000
M205 X10 Y10
G0 F4500 X177.624 Y103.972
M204 S1800
M205 X8 Y8
G1 F900 X151.272 Y77.619 E167.64887
G1 X151.202 Y77.549
M204 S3000
M205 X10 Y10
G0 F4500 X150.48 Y77.619
M204 S1800
M205 X8 Y8
G1 F900 X177.624 Y104.764 E169.43638
G1 X177.694 Y104.834
M204 S3000
M205 X10 Y10
G0 F4500 X177.624 Y105.556
M204 S1800
M205 X8 Y8
G1 F900 X149.688 Y77.619 E171.27605
G1 X149.618 Y77.549
M204 S3000
M205 X10 Y10
